packages/ui-icons/src/Service-logos/24/Sberzvuk_direct_url.svg

<svg width="32" height="32" viewBox="0 0 32 32" fill="none" xmlns="http://www.w3.org/2000/svg">
<path d="M16 28C22.6274 28 28 22.6274 28 16C28 9.37258 22.6274 4 16 4C9.37258 4 4 9.37258 4 16C4 22.6274 9.37258 28 16 28Z" fill="url(#paint0_linear_908_18)"/>
<path d="M25.0358 23.8967C24.064 15.0008 16.9993 7.93603 8.1033 6.96417C7.36536 7.60962 6.70718 8.344 6.1455 9.1506C15.3361 9.22834 22.7717 16.664 22.8494 25.8545C23.656 25.2928 24.3904 24.6347 25.0358 23.8967Z" fill="url(#paint1_linear_908_18)"/>
<path d="M20.0925 27.2841C20.1306 26.8611 20.15 26.4328 20.15 26C20.15 18.1852 13.8148 11.85 5.99999 11.85C5.56717 11.85 5.13888 11.8694 4.71595 11.9075C4.43887 12.6713 4.23713 13.4712 4.11972 14.2983C4.7321 14.2007 5.36012 14.15 5.99999 14.15C12.5446 14.15 17.85 19.4554 17.85 26C17.85 26.6399 17.7993 27.2679 17.7016 27.8803C18.5287 27.7629 19.3287 27.5611 20.0925 27.2841Z" fill="url(#paint2_linear_908_18)"/>
<path d="M4.04608 17.0591C4.67564 16.9221 5.3294 16.85 5.99999 16.85C11.0534 16.85 15.15 20.9466 15.15 26C15.15 26.6706 15.0779 27.3243 14.9409 27.9539C14.1628 27.8859 13.406 27.7436 12.6775 27.5341C12.7904 27.0409 12.85 26.5274 12.85 26C12.85 22.2168 9.78315 19.15 5.99999 19.15C5.47258 19.15 4.95908 19.2096 4.46587 19.3224C4.25643 18.594 4.11412 17.8372 4.04608 17.0591Z" fill="url(#paint3_linear_908_18)"/>
<path d="M10.4542 26.6444C10.4844 26.434 10.5 26.2188 10.5 26C10.5 23.5147 8.48527 21.5 5.99999 21.5C5.78119 21.5 5.56604 21.5156 5.35559 21.5458C6.49219 23.7229 8.27711 25.5078 10.4542 26.6444Z" fill="url(#paint4_linear_908_18)"/>
<path d="M24 10C24 9.88571 24 9.77143 23.9714 9.62857L23.5429 9.94286V9.97143C23.5429 10.8286 22.8571 11.5143 22 11.5143C21.1429 11.5143 20.4571 10.8571 20.4571 10C20.4571 9.14286 21.1429 8.45714 22 8.45714C22.3143 8.45714 22.6286 8.54286 22.8571 8.71429L23.2571 8.42857C22.9143 8.17143 22.4857 8 22 8C20.8857 8 20 8.88571 20 10C20 11.1143 20.8857 12 22 12C23.1143 12 24 11.1143 24 10Z" fill="#A2A2A2"/>
<path d="M23.5714 8.77142C23.6571 8.88571 23.7428 9.02857 23.8 9.17142L22 10.5143L21.2286 10.0286V9.45714L22 9.94285L23.5714 8.77142Z" fill="#A2A2A2"/>
<defs>
<linearGradient id="paint0_linear_908_18" x1="16" y1="4" x2="16" y2="28" gradientUnits="userSpaceOnUse">
<stop stop-color="white"/>
<stop offset="1" stop-color="white"/>
</linearGradient>
<linearGradient id="paint1_linear_908_18" x1="5.55469" y1="8.47278" x2="24.6637" y2="28.5875" gradientUnits="userSpaceOnUse">
<stop offset="0.0833333" stop-color="#40FFFF"/>
<stop offset="0.488" stop-color="#54BEFF"/>
<stop offset="1" stop-color="#C13EFF"/>
</linearGradient>
<linearGradient id="paint2_linear_908_18" x1="5.55469" y1="8.47278" x2="24.6637" y2="28.5875" gradientUnits="userSpaceOnUse">
<stop offset="0.0833333" stop-color="#40FFFF"/>
<stop offset="0.488" stop-color="#54BEFF"/>
<stop offset="1" stop-color="#C13EFF"/>
</linearGradient>
<linearGradient id="paint3_linear_908_18" x1="5.55469" y1="8.47278" x2="24.6637" y2="28.5875" gradientUnits="userSpaceOnUse">
<stop offset="0.0833333" stop-color="#40FFFF"/>
<stop offset="0.488" stop-color="#54BEFF"/>
<stop offset="1" stop-color="#C13EFF"/>
</linearGradient>
<linearGradient id="paint4_linear_908_18" x1="5.55469" y1="8.47278" x2="24.6637" y2="28.5875" gradientUnits="userSpaceOnUse">
<stop offset="0.0833333" stop-color="#40FFFF"/>
<stop offset="0.488" stop-color="#54BEFF"/>
<stop offset="1" stop-color="#C13EFF"/>
</linearGradient>
</defs>
</svg>

<svg width="32" height="32" fill="none" xmlns="http://www.w3.org/2000/svg"><path d="M16 28c6.627 0 12-5.373 12-12S22.627 4 16 4 4 9.373 4 16s5.373 12 12 12Z" fill="url(#a)"/><path d="M25.036 23.897C24.064 15 16.999 7.936 8.103 6.964a12.067 12.067 0 0 0-1.957 2.187c9.19.077 16.626 7.513 16.703 16.704a12.064 12.064 0 0 0 2.187-1.958Z" fill="url(#b)"/><path d="M20.093 27.284c.038-.423.057-.851.057-1.284 0-7.815-6.335-14.15-14.15-14.15-.433 0-.861.02-1.284.058a11.92 11.92 0 0 0-.596 2.39A11.94 11.94 0 0 1 6 14.15c6.545 0 11.85 5.305 11.85 11.85 0 .64-.05 1.268-.148 1.88.827-.117 1.627-.319 2.39-.596Z" fill="url(#c)"/><path d="M4.046 17.06a9.15 9.15 0 0 1 10.895 10.895 11.948 11.948 0 0 1-2.263-.42 6.85 6.85 0 0 0-8.212-8.212 11.954 11.954 0 0 1-.42-2.264Z" fill="url(#d)"/><path d="M10.454 26.644a4.5 4.5 0 0 0-5.099-5.099 12.053 12.053 0 0 0 5.1 5.1Z" fill="url(#e)"/><path d="M24 10c0-.114 0-.229-.029-.371l-.428.314v.028c0 .858-.686 1.543-1.543 1.543-.857 0-1.543-.657-1.543-1.514S21.143 8.457 22 8.457c.314 0 .629.086.857.257l.4-.285A2.084 2.084 0 0 0 22 8c-1.114 0-2 .886-2 2 0 1.114.886 2 2 2 1.114 0 2-.886 2-2Z" fill="#A2A2A2"/><path d="M23.571 8.771c.086.115.172.258.229.4L22 10.514l-.771-.485v-.572l.771.486 1.571-1.172Z" fill="#A2A2A2"/><defs><linearGradient id="a" x1="16" y1="4" x2="16" y2="28" gradientUnits="userSpaceOnUse"><stop stop-color="#fff"/><stop offset="1" stop-color="#fff"/></linearGradient><linearGradient id="b" x1="5.555" y1="8.473" x2="24.664" y2="28.587" gradientUnits="userSpaceOnUse"><stop offset=".083" stop-color="#40FFFF"/><stop offset=".488" stop-color="#54BEFF"/><stop offset="1" stop-color="#C13EFF"/></linearGradient><linearGradient id="c" x1="5.555" y1="8.473" x2="24.664" y2="28.587" gradientUnits="userSpaceOnUse"><stop offset=".083" stop-color="#40FFFF"/><stop offset=".488" stop-color="#54BEFF"/><stop offset="1" stop-color="#C13EFF"/></linearGradient><linearGradient id="d" x1="5.555" y1="8.473" x2="24.664" y2="28.587" gradientUnits="userSpaceOnUse"><stop offset=".083" stop-color="#40FFFF"/><stop offset=".488" stop-color="#54BEFF"/><stop offset="1" stop-color="#C13EFF"/></linearGradient><linearGradient id="e" x1="5.555" y1="8.473" x2="24.664" y2="28.587" gradientUnits="userSpaceOnUse"><stop offset=".083" stop-color="#40FFFF"/><stop offset=".488" stop-color="#54BEFF"/><stop offset="1" stop-color="#C13EFF"/></linearGradient></defs></svg>
